X:1
T:Soavissimi baci
T:Soavissimi baci
T:Giovanni Maria Artusi
T:Source : Canzonette a 4 voci---Libro primo---Venetia---G.Vincenti---1598. Editor : André Vierendeels (18/02/14)
C:Giovanni Maria Artusi
%%score [ 1 2 3 4 ]
L:1/8
Q:1/4=80
M:4/4
K:F
V:1 treble nm="Canto1" snm="C 1"
V:2 treble nm="Canto 2" snm="C 2"
V:3 treble nm="Alto" snm="A"
V:4 treble-8 nm="Tenor" snm="T"
V:1
 A8 | A4 A4- | A2 A2 A4 | B8 | A4 A2 B2 | c4 c2 d2 | c6 B2 | f6 _e2 | d8 | d8 | d8 | ^c4 d4- | %12
w: So-|a- vis-|* si- mi|ba-|ci ch'in- no-|va- te d'a-|mor l'ar-|den- ti|fa-|ci,|so-|a- vis-|
 d2 d2 d4 | d8 | d4 d2 d2 | f4 f2 f2 | f6 d2 | d2 d2 c4- | c2 B2 A4 | G8 | z2 B2 c2 d2 | %21
w: * si- mi|ba-|ci ch'in- no-|va- te d'a-|mor l'ar-|den- ti fa-||ci,|fe- ri- te|
 _e2 e2 e2 d2 | c4 c4 | d3 c A3 G | A4 A4 | z2 B3 B B2 | A2 A2 B4 | d4 d2 d2 | c2 B2 A2 G2 | A8 | %30
w: si, fe- ri- te|si ma|dol- c'e la fe-|ri- ta,|che la mort'|alm' al- trui|ri- torn' in|vi- * * *||
 G8 | z4 z2 B2 | B2 A2 G4 | z4 f4 | f3 e d3 ^c | d4 d4 | z2 d3 d d2 | f2 c2 d4 | f8 | _e4 c4 | d8 | %41
w: ta,|fe-|ri- te si|ma|dol- c'e la fe-|ri- ta,|che la mort'|alm' al- trui|ri-|torn' in|vi-|
 d8 |] %42
w: ta.|
V:2
 d8 | ^c4 d4- | d2 d2 d4 | d8 | d4 d2 d2 | f4 f2 f2 | f6 d2 | d2 d2 c4- | c2 B2 A4 | =B8 | A8 | %11
w: So-|a- vis-|* si- mi|ba-|ci ch'in- no-|va- te d'a-|mor l'ar-|den- ti fa-||ci,|so-|
 A4 A4- | A2 A2 A4 | B8 | A4 A2 B2 | c4 c2 d2 | c6 B2 | f6 _e2 | d8 | d8 | z4 z2 B2 | B2 A2 G4 | %22
w: a- vis-|* si- mi|ba-|ci ch'in- no-|va- te d'a-|mor l'ar-|den- ti|fa-|ci,|fe-|ri- te si,|
 z4 f4 |"^-natural" f3 e d3 ^c | d4 d4 | z2 d3 d d2 | f2 c2 d4 | f8 | _e4 c4 | d8 | d8 | %31
w: ma-|dol- c'e la fe-|ri- ta,|che la mort'|alm' al- trui|ri-|torn' in|vi-|ta,|
 z2 B2 c2 d2 | _e2 e2 e2 d2 | c4 c4 | d3 c A3 G | A4 A4 | z2 B3 B B2 | A2 A2 B4 | d4 d2 d2 | %39
w: fe- ri- te|si, fe- ri- te|si ma|dol- c'e la fe-|ri- ta,|che la mort'|alm' al- trui|ri- torn' in|
 c2 B2 A2 G2 | A8 | =B8 |] %42
w: vi- * * *||ta.|
V:3
 F8 | E4 ^F4- | F2 ^F2 F4 | G8 | ^F4 F2 G2 | A4 A2 B2 | A6 B2 | A6 G2 | ^F2 G4 F2 | G8 | F8 | %11
w: So-|a- vis-|* si- ma|ba-|ci ch'in- no-|va- te d'a-|mor l'ar-|den- ti|fa- * *|ci,|so-|
 E4 ^F4- | F2 ^F2 F4 | G8 | ^F4 F2 G2 | A4 A2 B2 | A6 B2 | A6 G2 | ^F2 G4 F2 | G2 B2 B2 A2 | %20
w: a- vis-|* si- mi|ba-|ci ch'in- no-|va- te d'a-|mor l'ar-|den- ti|fa- * *|ci, fe- ri- te|
 G2 G2 G2 F2 | _E2 c2 c2 B2 | A4 A4 | B3 A ^F3 G | ^F4 F4 | z2 G3 G G2 | F2 F2 B,4 | B4 B4 | %28
w: si, fe- ri- te|si,- fe- ri- te|si ma|dol- c'e la fe-|ri- ta,|che la mort'|alm' al- trui|ri- torn'|
 G4 G4- | G2 FE ^F4 | G2 B2 B2 A2 | G2 G2 G2 F2 | _E2 c2 c2 B2 | A4 A4 | B3 A ^F3 G | ^F4 F4 | %36
w: in vi-||ta,- fe- ri- te|si, fe- ri- te|si, fe- ri- te|si ma|dol- c'e la fe-|ri- ta,|
 z2 G3 G G2 | F2 F2 B,4 | B4 B4 | G4 G4- | G2 FE ^F4 | G8 |] %42
w: che la mort'|alm' al- trui|ri- torn'|in vi-||ta.|
V:4
 d8 | A4 d4- | d2 d2 d4 | G8 | d4 d2 g2 | f4 f2 B2 | fefg f2 g2 | d3 e f2 c2 | d8 | G8 | d8 | %11
w: So-|a- vis-|* si- mi|ba-|ci ch'in- no-|va- te d'a-|mor _ _ _ _ l'ar-|den- * * ti|fa-|ci,|so-|
 A4 d4- | d2 d2 d4 | G8 | d4 d2 g2 | f4 f2 B2 | fefg f2 g2 | d3 e f2 c2 | d8 | G2 g2 g2 f2 | %20
w: a- vis|_ si- mi|ba-|ci ch'in- no-|va- te d'a-|mor _ _ _ _ l'ar-|den- * * ti|fa-|ci, fe- ri- te|
 _e2 e2 e2 d2 | c8 | F8 | B3 c d3 _e | d4 d4 | z8 | z8 | B8 | c4 _e4 | d8 | G2 g2 g2 f2 | %31
w: si, fe- ri- te|si|ma|dol- c'e la fe-|ri- ta,|||ri-|torn' in|vi-|ta, fe- ri- te|
 _e2 e2 e2 d2 | c8 | F8 | B3 c d3 _e | d4 d4 | z8 | z8 | B8 | c4 _e4 | d8 | G8 |] %42
w: si, fe- ri- te|si|ma|dol- c'e la fe-|ri- ta,|||ri-|torn' in|vi-|ta.|

